svg/color/usd1.svg

<svg xmlns="http://www.w3.org/2000/svg" width="500" height="500" fill="none" viewBox="0 0 500 500"><path fill="#EAAC08" fill-rule="evenodd" d="M250 475c124.264 0 225-100.736 225-225S374.264 25 250 25 25 125.736 25 250s100.736 225 225 225m0 25c138.071 0 250-111.929 250-250S388.071 0 250 0 0 111.929 0 250s111.929 250 250 250" clip-rule="evenodd"/><circle cx="250" cy="250" r="209" fill="url(#usd1_svg-a)"/><path fill="#CA8404" d="m46.18 296.452 91.929-52.263-95.732-18.318c5.179-45.049 24.68-85.741 53.837-117.405q34.626 19.07 69.252 38.146a355764 355764 0 0 0 84.691 46.648l120.374 66.279 4.508 2.49c4.903 3.752 7.865 10.131 7.635 17.022 16.651 5.628 23.956 27.63 20.007 46.596-6.812-11.803-17.77-19.956-30.274-22.343-18.988.545-37.909-2.763-55.876-9.722-26.359-3.786-47.419 1.467-66.341 11.768-23.249 12.674-49.017 36.855-72.321 58.724-7.305 6.856-14.368 13.484-21.036 19.46-12.599 10.391-29.174 17.858-46.319 22.112a210 210 0 0 1-19.273-19.711l57.694-49.85c2.699-2.354 3.225-6.72 1.119-9.756-2.073-3.036-5.989-3.616-8.688-1.262l-58.449 50.51A209 209 0 0 1 62.531 342.5l14.634-10.202c2.896-2.046 3.784-6.31 1.974-9.585-1.81-3.241-5.66-4.23-8.555-2.217l-13.706 9.553a207.4 207.4 0 0 1-10.698-33.597m397.411-125.358a207.4 207.4 0 0 1 12.467 43.766l-9.32 1.666-.008.001c-30.964 5.531-61.922 11.061-94.198 17.599L238.41 171.941l137.551-74.943a501 501 0 0 1 10.307-5.47c21.084 18.146 38.506 40.428 51.008 65.586l-20.576 3.741c-3.554.614-5.989 4.434-5.429 8.527.526 4.094 3.85 6.857 7.404 6.243z"/><path fill="#EAAC08" fill-rule="evenodd" d="M250 459c115.428 0 209-93.572 209-209S365.428 41 250 41 41 134.572 41 250s93.572 209 209 209m0 16c124.264 0 225-100.736 225-225S374.264 25 250 25 25 125.736 25 250s100.736 225 225 225" clip-rule="evenodd"/><path fill="url(#usd1_svg-b)" fill-rule="evenodd" d="M250 459c115.428 0 209-93.572 209-209S365.428 41 250 41 41 134.572 41 250s93.572 209 209 209m0 16c124.264 0 225-100.736 225-225S374.264 25 250 25 25 125.736 25 250s100.736 225 225 225" clip-rule="evenodd"/><path fill="url(#usd1_svg-c)" fill-rule="evenodd" d="M250 459c115.428 0 209-93.572 209-209S365.428 41 250 41 41 134.572 41 250s93.572 209 209 209m0 16c124.264 0 225-100.736 225-225S374.264 25 250 25 25 125.736 25 250s100.736 225 225 225" clip-rule="evenodd"/><path fill="#85490E" d="M232.8 149.98v13.79c-8.38 6.19-16.87 11.26-25.45 15.22-9.28 4.02-18.57 6.04-27.85 6.04-.58 0-1.17 0-1.75-.02v-.24c-.08 0-.17 0-.25-.01v-.24c-.08 0-.17 0-.25-.01v-.24c-.08 0-.17 0-.25-.01v-.24c-.08 0-.17 0-.25-.01v-.24c-.08 0-.17 0-.25-.01v-.24c-.08 0-.17 0-.25-.01v-.24c-.08 0-.17 0-.25-.01v-.24c-.08 0-.17 0-.25-.01v-.24c-.08 0-.17 0-.25-.01v-.24c-.08 0-.17 0-.25-.01v-.24c-.08 0-.17 0-.25-.01v-.24c-.08 0-.17 0-.25-.01v-.24c-.08 0-.17 0-.25-.01v-.24c-.08 0-.17 0-.25-.01v-.24c-.08 0-.17 0-.25-.01v-.24c-.08 0-.17 0-.25-.01v-.24c-.08 0-.17 0-.25-.01v-.24c-.08 0-.17 0-.25-.01v-.24c-.08 0-.17 0-.25-.01v-.24c-.08 0-.17 0-.25-.01v-.24c-.08 0-.17 0-.25-.01v-.24c-.08 0-.17 0-.25-.01v-.24c-.08 0-.17 0-.25-.01v-.24c-.08 0-.17 0-.25-.01v-.24c-.08 0-.17 0-.25-.01v-.24c-.08 0-.17 0-.25-.01v-.24c-.08 0-.17 0-.25-.01v-.24c-.08 0-.17 0-.25-.01v-.24c-.08 0-.17 0-.25-.01v-.24c-.08 0-.17 0-.25-.01v-.25c.5.02 1 .02 1.5.02 9.28 0 18.57-2.02 27.85-6.04 9.87-4.55 19.6-10.57 29.2-18.07 1.34-1.05 2.68-2.11 4-3.19m40.95-37.23v281h-33.2v-.25h-.25v-.25h-.25V393h-.25v-.25h-.25v-.25h-.25v-.25h-.25V392h-.25v-.25h-.25v-.25h-.25v-.25h-.25V391h-.25v-.25h-.25v-.25h-.25v-.25h-.25V390h-.25v-.25h-.25v-.25h-.25v-.25h-.25V389h-.25v-.25h-.25v-.25h-.25v-.25h-.25V388h-.25v-.25h-.25v-.25h-.25v-.25h-.25V387h-.25v-.25h-.25v-.25h-.25v-.25h-.25V386H266V105.25h.25v.25h.25v.25h.25v.25h.25v.25h.25v.25h.25v.25h.25v.25h.25v.25h.25v.25h.25v.25h.25v.25h.25v.25h.25v.25h.25v.25h.25v.25h.25v.25h.25v.25h.25v.25h.25v.25h.25v.25h.25v.25h.25v.25h.25v.25h.25v.25h.25v.25h.25v.25h.25v.25h.25v.25h.25v.25h.25v.25z"/><path fill="url(#usd1_svg-d)" d="M266 105v281h-33.2V163.77c.08-.06-.08.06 0 0v-13.79c-1.32 1.08-2.66 2.14-4 3.19-9.6 7.5-19.33 13.52-29.2 18.07-9.28 4.02-18.57 6.04-27.85 6.04-.5 0-1 0-1.5-.02-.08.01-.17 0-.25 0v-30.91c.35.03.71.03 1.07.03 5.37 0 11.69-1.89 18.93-5.65q11.61-6.015 24-15.66 12.405-9.63 21.6-20.07z"/><defs><linearGradient id="usd1_svg-a" x1="250" x2="250" y1="41" y2="459" gradientUnits="userSpaceOnUse"><stop stop-color="#CA8404"/><stop offset="1" stop-color="#A15D07"/></linearGradient><linearGradient id="usd1_svg-b" x1="475" x2="25" y1="25" y2="475" gradientUnits="userSpaceOnUse"><stop stop-color="#44403C"/><stop offset=".4" stop-color="#44403C" stop-opacity="0"/></linearGradient><linearGradient id="usd1_svg-c" x1="475" x2="25" y1="25" y2="475" gradientUnits="userSpaceOnUse"><stop offset=".6" stop-color="#F5F5F4" stop-opacity="0"/><stop offset="1" stop-color="#F5F5F4"/></linearGradient><linearGradient id="usd1_svg-d" x1="218" x2="218" y1="105" y2="386" gradientUnits="userSpaceOnUse"><stop stop-color="#FEF7C3"/><stop offset="1" stop-color="#FDDA47"/></linearGradient></defs></svg>

<svg width="500" height="500" viewBox="0 0 500 500" fill="none" xmlns="http://www.w3.org/2000/svg">
<path fill-rule="evenodd" clip-rule="evenodd" d="M250 475C374.264 475 475 374.264 475 250C475 125.736 374.264 25 250 25C125.736 25 25 125.736 25 250C25 374.264 125.736 475 250 475ZM250 500C388.071 500 500 388.071 500 250C500 111.929 388.071 0 250 0C111.929 0 0 111.929 0 250C0 388.071 111.929 500 250 500Z" fill="#EAAC08"/>
<circle cx="250" cy="250" r="209" fill="url(#paint0_linear_177_99)"/>
<path d="M46.1799 296.452L138.109 244.189L42.377 225.871C47.5555 180.822 67.0578 140.13 96.2142 108.466C119.298 121.179 142.382 133.896 165.466 146.612C193.696 162.165 221.927 177.717 250.157 193.26L370.531 259.539L375.039 262.029C379.942 265.781 382.904 272.16 382.674 279.051C399.325 284.679 406.63 306.681 402.681 325.647C395.869 313.844 384.911 305.691 372.407 303.304C353.419 303.849 334.498 300.541 316.531 293.582C290.172 289.796 269.112 295.049 250.19 305.35C226.941 318.024 201.173 342.205 177.869 364.074C170.564 370.93 163.501 377.558 156.833 383.534C144.234 393.925 127.659 401.392 110.514 405.646C103.667 399.505 97.2274 392.92 91.2407 385.935L148.935 336.085C151.634 333.731 152.16 329.365 150.054 326.329C147.981 323.293 144.065 322.713 141.366 325.067L82.9173 375.577C75.1455 365.253 68.3082 354.185 62.5314 342.5L77.1649 332.298C80.0608 330.252 80.9492 325.988 79.1394 322.713C77.3295 319.472 73.4793 318.483 70.5835 320.496L56.8777 330.049C52.4069 319.275 48.8114 308.047 46.1799 296.452Z" fill="#CA8404"/>
<path d="M443.591 171.094C449.264 184.998 453.483 199.649 456.058 214.86C452.95 215.416 449.844 215.971 446.738 216.526L446.73 216.527C415.766 222.058 384.808 227.588 352.532 234.126L238.41 171.941L375.961 96.9982C379.495 95.0726 382.921 93.252 386.268 91.5281C407.352 109.674 424.774 131.956 437.276 157.114L416.7 160.855C413.146 161.469 410.711 165.289 411.271 169.382C411.797 173.476 415.121 176.239 418.675 175.625L443.591 171.094Z" fill="#CA8404"/>
<path fill-rule="evenodd" clip-rule="evenodd" d="M250 459C365.428 459 459 365.428 459 250C459 134.572 365.428 41 250 41C134.572 41 41 134.572 41 250C41 365.428 134.572 459 250 459ZM250 475C374.264 475 475 374.264 475 250C475 125.736 374.264 25 250 25C125.736 25 25 125.736 25 250C25 374.264 125.736 475 250 475Z" fill="#EAAC08"/>
<path fill-rule="evenodd" clip-rule="evenodd" d="M250 459C365.428 459 459 365.428 459 250C459 134.572 365.428 41 250 41C134.572 41 41 134.572 41 250C41 365.428 134.572 459 250 459ZM250 475C374.264 475 475 374.264 475 250C475 125.736 374.264 25 250 25C125.736 25 25 125.736 25 250C25 374.264 125.736 475 250 475Z" fill="url(#paint1_linear_177_99)"/>
<path fill-rule="evenodd" clip-rule="evenodd" d="M250 459C365.428 459 459 365.428 459 250C459 134.572 365.428 41 250 41C134.572 41 41 134.572 41 250C41 365.428 134.572 459 250 459ZM250 475C374.264 475 475 374.264 475 250C475 125.736 374.264 25 250 25C125.736 25 25 125.736 25 250C25 374.264 125.736 475 250 475Z" fill="url(#paint2_linear_177_99)"/>
<path d="M232.8 149.98V163.77C224.42 169.96 215.93 175.03 207.35 178.99C198.07 183.01 188.78 185.03 179.5 185.03C178.92 185.03 178.33 185.03 177.75 185.01V184.77C177.67 184.77 177.58 184.77 177.5 184.76V184.52C177.42 184.52 177.33 184.52 177.25 184.51V184.27C177.17 184.27 177.08 184.27 177 184.26V184.02C176.92 184.02 176.83 184.02 176.75 184.01V183.77C176.67 183.77 176.58 183.77 176.5 183.76V183.52C176.42 183.52 176.33 183.52 176.25 183.51V183.27C176.17 183.27 176.08 183.27 176 183.26V183.02C175.92 183.02 175.83 183.02 175.75 183.01V182.77C175.67 182.77 175.58 182.77 175.5 182.76V182.52C175.42 182.52 175.33 182.52 175.25 182.51V182.27C175.17 182.27 175.08 182.27 175 182.26V182.02C174.92 182.02 174.83 182.02 174.75 182.01V181.77C174.67 181.77 174.58 181.77 174.5 181.76V181.52C174.42 181.52 174.33 181.52 174.25 181.51V181.27C174.17 181.27 174.08 181.27 174 181.26V181.02C173.92 181.02 173.83 181.02 173.75 181.01V180.77C173.67 180.77 173.58 180.77 173.5 180.76V180.52C173.42 180.52 173.33 180.52 173.25 180.51V180.27C173.17 180.27 173.08 180.27 173 180.26V180.02C172.92 180.02 172.83 180.02 172.75 180.01V179.77C172.67 179.77 172.58 179.77 172.5 179.76V179.52C172.42 179.52 172.33 179.52 172.25 179.51V179.27C172.17 179.27 172.08 179.27 172 179.26V179.02C171.92 179.02 171.83 179.02 171.75 179.01V178.77C171.67 178.77 171.58 178.77 171.5 178.76V178.52C171.42 178.52 171.33 178.52 171.25 178.51V178.27C171.17 178.27 171.08 178.27 171 178.26V178.02C170.92 178.02 170.83 178.02 170.75 178.01V177.77C170.67 177.77 170.58 177.77 170.5 177.76V177.52C170.42 177.52 170.33 177.52 170.25 177.51V177.26C170.75 177.28 171.25 177.28 171.75 177.28C181.03 177.28 190.32 175.26 199.6 171.24C209.47 166.69 219.2 160.67 228.8 153.17C230.14 152.12 231.48 151.06 232.8 149.98Z" fill="#85490E"/>
<path d="M273.75 112.75V393.75H240.55V393.5H240.3V393.25H240.05V393H239.8V392.75H239.55V392.5H239.3V392.25H239.05V392H238.8V391.75H238.55V391.5H238.3V391.25H238.05V391H237.8V390.75H237.55V390.5H237.3V390.25H237.05V390H236.8V389.75H236.55V389.5H236.3V389.25H236.05V389H235.8V388.75H235.55V388.5H235.3V388.25H235.05V388H234.8V387.75H234.55V387.5H234.3V387.25H234.05V387H233.8V386.75H233.55V386.5H233.3V386.25H233.05V386H266V105.25H266.25V105.5H266.5V105.75H266.75V106H267V106.25H267.25V106.5H267.5V106.75H267.75V107H268V107.25H268.25V107.5H268.5V107.75H268.75V108H269V108.25H269.25V108.5H269.5V108.75H269.75V109H270V109.25H270.25V109.5H270.5V109.75H270.75V110H271V110.25H271.25V110.5H271.5V110.75H271.75V111H272V111.25H272.25V111.5H272.5V111.75H272.75V112H273V112.25H273.25V112.5H273.5V112.75H273.75Z" fill="#85490E"/>
<path d="M266 105V386H232.8V163.77C232.88 163.71 232.72 163.83 232.8 163.77V149.98C231.48 151.06 230.14 152.12 228.8 153.17C219.2 160.67 209.47 166.69 199.6 171.24C190.32 175.26 181.03 177.28 171.75 177.28C171.25 177.28 170.75 177.28 170.25 177.26C170.17 177.27 170.08 177.26 170 177.26V146.35C170.35 146.38 170.71 146.38 171.07 146.38C176.44 146.38 182.76 144.49 190 140.73C197.74 136.72 205.74 131.5 214 125.07C222.27 118.65 229.47 111.96 235.6 105H266Z" fill="url(#paint3_linear_177_99)"/>
<defs>
<linearGradient id="paint0_linear_177_99" x1="250" y1="41" x2="250" y2="459" gradientUnits="userSpaceOnUse">
<stop stop-color="#CA8404"/>
<stop offset="1" stop-color="#A15D07"/>
</linearGradient>
<linearGradient id="paint1_linear_177_99" x1="475" y1="25" x2="25" y2="475" gradientUnits="userSpaceOnUse">
<stop stop-color="#44403C"/>
<stop offset="0.4" stop-color="#44403C" stop-opacity="0"/>
</linearGradient>
<linearGradient id="paint2_linear_177_99" x1="475" y1="25" x2="25" y2="475" gradientUnits="userSpaceOnUse">
<stop offset="0.6" stop-color="#F5F5F4" stop-opacity="0"/>
<stop offset="1" stop-color="#F5F5F4"/>
</linearGradient>
<linearGradient id="paint3_linear_177_99" x1="218" y1="105" x2="218" y2="386" gradientUnits="userSpaceOnUse">
<stop stop-color="#FEF7C3"/>
<stop offset="1" stop-color="#FDDA47"/>
</linearGradient>
</defs>
</svg>
